icon-svg/ring-smart-lighting.svg

<?xml version="1.0" encoding="UTF-8"?>
<svg width="24px" height="24px" viewBox="0 0 24 24" version="1.1" fill="#44739e" xmlns="http://www.w3.org/2000/svg" xmlns:xlink="http://www.w3.org/1999/xlink">
            <path d="m 15.38,13 c -0.17356,0.0212 -0.340606,0.07915 -0.49,0.17 -0.111492,0.06855 -0.209727,0.156625 -0.29,0.26 l -1,0.12 -0.34,-1 v -0.19 c 0,0 1.49,0.46 2.12,0.64 z m 0.92,3.38 c 0.348566,-0.08223 0.684789,-0.209993 1,-0.38 1.336516,-0.833251 2.253448,-2.197733 2.52,-3.75 C 20.013674,11.516731 20.074633,10.754733 20,10 19.896568,9.2685614 19.673595,8.5591015 19.34,7.9 c 0.0534,0.1471008 0.07388,0.3041239 0.06,0.46 -0.02494,0.144574 -0.07575,0.2834641 -0.15,0.41 -0.1,0.18 -0.15,0.18 -0.2,0.32 -0.01698,0.1227488 -0.01698,0.2472512 0,0.37 v 0.42 0.47 c -0.0097,0.1551 -0.03312,0.309036 -0.07,0.46 -0.02717,0.127132 -0.06738,0.251122 -0.12,0.37 -0.08679,0.196298 -0.197636,0.381048 -0.33,0.55 -0.08116,0.132087 -0.174935,0.256 -0.28,0.37 -0.131881,0.14284 -0.279485,0.270316 -0.44,0.38 -0.20678,0.153854 -0.431828,0.281493 -0.67,0.38 -0.149876,0.06921 -0.307743,0.119589 -0.47,0.15 -0.155937,0.02138 -0.314063,0.02138 -0.47,0 -0.259603,-0.02031 -0.520397,-0.02031 -0.78,0 0.421806,0.02727 0.83045,0.157766 1.19,0.38 0.151813,0.102159 0.283933,0.230891 0.39,0.38 0.136309,0.185697 0.234839,0.396347 0.29,0.62 0.06226,0.210727 0.0793,0.43223 0.05,0.65 -0.03711,0.188179 -0.101101,0.370042 -0.19,0.54 -0.114867,0.201229 -0.256118,0.3862 -0.42,0.55 -0.135828,0.09562 -0.279702,0.179267 -0.43,0.25 z M 7.64,12.79 7.45,13.13 c -0.1431827,0.0093 -0.2868173,0.0093 -0.43,0 C 6.7526717,13.067789 6.4889447,12.991007 6.23,12.9 5.5140705,12.702857 4.8777086,12.286775 4.41,11.71 3.9357633,11.064006 3.5957403,10.329557 3.41,9.55 3.3483619,9.3043042 3.3115109,9.0530478 3.3,8.8 V 8.38 h 0.17 0.08 c 0.1686707,1.1102105 0.6352247,2.153909 1.35,3.02 0.69,0.79 0.88,0.98 2.74,1.39 z m -0.19,0.34 c 0,0 0.06,-0.12 0.09,-0.17 L 7.63,12.79 C 8.82,10.4 5.11,8.21 3.5,8.32 v 0 H 3.3 c 0,0 2.61,-0.8 3.23,-0.53 0.6773594,0.5564491 1.1863738,1.2905378 1.47,2.12 0.3139976,0.866682 0.4134985,1.796501 0.29,2.71 L 8,12.84 Z m 3.09,-2.95 c 0.32,1.11 -1.66,2.06 -2,2.2 v -0.49 c 0.3316521,-0.01288 0.6519459,-0.124281 0.92,-0.32 0.624859,-0.216721 1.032077,-0.819403 1,-1.48 C 9.7820418,9.7976999 9.0201067,9.7656559 8.32,10 l 0.07,0.07 0.08,0.11 c 0,0.06 0.29,0.07 1.21,-0.09 m 0.85,0.15 c 0.05455,0.401854 -0.139007,0.79686 -0.49,1 -0.52,0.33 -1.42,0.59 -1.42,0.41 v -0.26 c 0.46,-0.27 1.64,0 1.91,-1.15 z M 9,8.5 C 8.5492694,8.5611761 8.0948616,8.5912472 7.64,8.59 7.64,8.49 7.5,8.46 7.47,8.41 7.44,8.36 8.32,8.12 9.04,8.32 9.76,8.52 10.38,8.96 10.33,9.12 9.9980727,8.7295592 9.5124545,8.5031808 9,8.5 Z M 8.13,9.67 C 8.13,9.56 8.01,9.53 7.98,9.48 7.95,9.43 8.73,9.2 9.37,9.39 10.01,9.58 10.56,9.96 10.52,10.11 9.77,9.18 8.69,9.77 8.13,9.67 Z M 9.2,9 C 8.7492694,9.0611761 8.2948616,9.0912472 7.84,9.09 7.84,8.99 7.7,8.96 7.67,8.91 7.64,8.86 8.52,8.63 9.24,8.82 9.96,9.01 10.58,9.47 10.53,9.62 10.19644,9.2317068 9.7118592,9.0058119 9.2,9 Z m 1.28,1.24 c 0.08,0.1 0,0.18 -0.48,0.48 -0.48,0.3 -1.38,0.43 -1.38,0.25 L 8.52,10.72 C 8.82,10.61 10,10.71 10.48,10.24 Z M 8.73,8.05 C 8.2323382,8.1109461 7.7313788,8.1410036 7.23,8.14 7.19,8 7.08,8 7,8 6.92,8 8,7.67 8.77,7.87 9.54,8.07 10.24,8.51 10.18,8.67 9.8019836,8.2734604 9.27785,8.0493481 8.73,8.05 Z m 1.75,2.19 0.06,-0.34 V 9.55 L 10.44,9.21 10.23,8.72 11.8,8.2 11.34,8.86 11.23,9.05 11.17,9.22 v 0.12 0.18 0.22 l 0.05,0.31 z m 6.11,-3.82 0.86,0.4 0.67,0.54 C 18.541383,6.708164 17.984688,5.8669357 17.22,6 16.963067,6.0520128 16.736832,6.2028361 16.59,6.42 Z m 2.19,2.37 V 8.63 L 18.69,8.35 18.58,8.06 18.4,7.75 18.29,7.57 h 0.08 l 0.1,-0.19 0.06,-0.26 V 6.85 l 0.45,0.66 0.24,0.31 V 8.01 8.14 L 19.17,8.27 19,8.62 c 0,0 -0.18,0.15 -0.22,0.17 z m -7.39,0.64 v 0.21 c 0,1.8 2.17,2.81 3.69,3.12 3.567524,0.632459 5.220154,-4.2593243 2,-5.92 0,0 -2.19,-1.08 -4.88,1.4 -0.303493,0.2826828 -0.548174,0.6225172 -0.72,1 l -0.09,0.22 h 0.06 0.16 l 0.18,-0.35 c 0.49,-0.74 0.66,-0.74 1,-0.86 0.715346,-0.1157731 1.444654,-0.1157731 2.16,0 0.809276,0.046969 1.592037,0.3055907 2.27,0.75 0.611718,0.3339204 0.99446,0.9730987 1,1.67 -0.32224,1.216199 -1.477599,2.020295 -2.73,1.9 C 14.316195,12.458509 13.205524,11.986998 12.31,11.22 11.975119,10.879042 11.731018,10.4596 11.6,10 V 9.74 9.45 h -0.22 z m 5,7.19 c 1.06,0 3.45,-1.68 3.83,-4.14 0.46,-2.94 -0.45,-4.76 -1.35,-5.19 l 0.84,0.19 c 1.91,0.89 1.69,4.26 1.31,5.94 -0.15,1 -2,3.38 -3.52,3.37 -0.38,0 -1.37,-0.16 -1.11,-0.17 z M 16.72,14 c 0.206936,0.396923 0.260338,0.856185 0.15,1.29 -0.09182,0.338097 -0.292064,0.636713 -0.57,0.85 0.231707,-0.242494 0.385029,-0.549138 0.44,-0.88 0.02788,-0.299204 -0.02749,-0.600293 -0.16,-0.87 z m -5.63,3 c 0.405974,0.95255 1.391865,1.522901 2.42,1.4 0.820603,-0.171375 1.506785,-0.730762 1.84,-1.5 z m 5.32,-2.49 c 0.261958,0.518785 0.114506,1.150723 -0.35,1.5 v -0.15 l -0.13,0.48 -0.05,0.13 -0.06,0.08 H 15.71 15.48 L 10.89,16.68 10.76,16.6 9.96,15.87 13,16 l 0.51,-0.06 0.37,-0.08 0.46,-0.16 0.3,-0.17 1.93,-1.62 z M 14,13.63 c -1.92,0.2 -1.89,0.29 -2.12,0.42 l -2.19,1.52 c -0.24,0.22 1.595625,0.065 1.595625,0.065 2.45,0 2.654375,-0.115 3.094375,-0.355 l 2,-1.62 C 16.6,13.44 16.67,13.34 14,13.63 Z"></path>

</svg>

<svg xmlns="http://www.w3.org/2000/svg" fill="#44739e" viewBox="0 0 24 24"><path d="M15.38 13a1.23 1.23 0 0 0-.49.17 1.09 1.09 0 0 0-.29.26l-1 .12-.34-1v-.19s1.49.46 2.12.64m.92 3.38a4.08 4.08 0 0 0 1-.38 5.52 5.52 0 0 0 2.52-3.75A6.36 6.36 0 0 0 20 10a6.74 6.74 0 0 0-.66-2.1 1.07 1.07 0 0 1 .06.46 1.22 1.22 0 0 1-.15.41c-.1.18-.15.18-.2.32a1.35 1.35 0 0 0 0 .37v.89a2.63 2.63 0 0 1-.07.46 1.9 1.9 0 0 1-.12.37 2.6 2.6 0 0 1-.33.55c-.0812.132-.175.256-.28.37a2.58 2.58 0 0 1-.44.38 3.12 3.12 0 0 1-.67.38 2 2 0 0 1-.47.15 1.73 1.73 0 0 1-.47 0 5 5 0 0 0-.78 0 2.58 2.58 0 0 1 1.19.38 1.52 1.52 0 0 1 .39.38 1.76 1.76 0 0 1 .29.62 1.56 1.56 0 0 1 .05.65 2 2 0 0 1-.19.54 2.6 2.6 0 0 1-.42.55 2.87 2.87 0 0 1-.43.25m-8.66-3.59-.19.34a3.3 3.3 0 0 1-.43 0 7.5 7.5 0 0 1-.79-.23 3.56 3.56 0 0 1-1.82-1.19 6 6 0 0 1-1-2.16 3.8 3.8 0 0 1-.11-.75v-.42h.25A6.21 6.21 0 0 0 4.9 11.4c.69.79.88.98 2.74 1.39m-.19.34s.06-.12.09-.17l.09-.17C8.82 10.4 5.11 8.21 3.5 8.32h-.2s2.61-.8 3.23-.53A4.72 4.72 0 0 1 8 9.91a5.71 5.71 0 0 1 .29 2.71l-.29.22Zm3.09-2.95c.32 1.11-1.66 2.06-2 2.2v-.49a1.67 1.67 0 0 0 .92-.32 1.49 1.49 0 0 0 1-1.48A3 3 0 0 0 8.32 10l.07.07.08.11c0 .06.29.07 1.21-.09m.85.15a1 1 0 0 1-.49 1c-.52.33-1.42.59-1.42.41v-.26c.46-.27 1.64 0 1.91-1.15M9 8.5a9.9 9.9 0 0 1-1.36.09c0-.1-.14-.13-.17-.18s.85-.29 1.57-.09 1.34.64 1.29.8A1.76 1.76 0 0 0 9 8.5m-.87 1.17c0-.11-.12-.14-.15-.19s.75-.28 1.39-.09 1.19.57 1.15.72c-.75-.93-1.83-.34-2.39-.44M9.2 9a9.9 9.9 0 0 1-1.36.09c0-.1-.14-.13-.17-.18s.85-.28 1.57-.09 1.34.65 1.29.8A1.78 1.78 0 0 0 9.2 9m1.28 1.24c.08.1 0 .18-.48.48s-1.38.43-1.38.25l-.1-.25c.3-.11 1.48-.01 1.96-.48M8.73 8.05a12.1 12.1 0 0 1-1.5.09C7.19 8 7.08 8 7 8s1-.33 1.77-.13 1.47.64 1.41.8a2 2 0 0 0-1.45-.62m1.75 2.19.06-.34v-.35l-.1-.34-.21-.49 1.57-.52-.46.66-.11.19-.06.17v.52l.05.31zm6.11-3.82.86.4.67.54c.4214-.6518-.1353-1.493-.9-1.36a1 1 0 0 0-.63.42m2.19 2.37v-.16l-.09-.28-.11-.29-.18-.31-.11-.18h.08l.1-.19.06-.26v-.27l.45.66.24.31v.32l-.05.13-.17.35s-.18.15-.22.17m-7.39.64v.21c0 1.8 2.17 2.81 3.69 3.12 3.5675.6325 5.2202-4.2593 2-5.92 0 0-2.19-1.08-4.88 1.4a3.15 3.15 0 0 0-.72 1l-.09.22h.22l.18-.35c.49-.74.66-.74 1-.86a6.76 6.76 0 0 1 2.16 0 4.63 4.63 0 0 1 2.27.75 1.92 1.92 0 0 1 1 1.67c-.3222 1.2162-1.4776 2.0203-2.73 1.9a5.72 5.72 0 0 1-3.18-1.35A2.86 2.86 0 0 1 11.6 10v-.55h-.22zm5 7.19c1.06 0 3.45-1.68 3.83-4.14.46-2.94-.45-4.76-1.35-5.19l.84.19c1.91.89 1.69 4.26 1.31 5.94-.15 1-2 3.38-3.52 3.37-.38 0-1.37-.16-1.11-.17m.33-2.62a1.82 1.82 0 0 1 .15 1.29 1.6 1.6 0 0 1-.57.85 1.67 1.67 0 0 0 .44-.88 1.63 1.63 0 0 0-.16-.87zm-5.63 3a2.33 2.33 0 0 0 2.42 1.4 2.58 2.58 0 0 0 1.84-1.5zm5.32-2.49a1.2 1.2 0 0 1-.35 1.5v-.15l-.13.48-.05.13-.06.08h-.34l-4.59.13-.13-.08-.8-.73L13 16l.51-.06.37-.08.46-.16.3-.17 1.93-1.62zM14 13.63c-1.92.2-1.89.29-2.12.42l-2.19 1.52c-.24.22 1.5956.065 1.5956.065 2.45 0 2.6544-.115 3.0944-.355l2-1.62c.22-.22.29-.32-2.38-.03"/></svg>
